outputs/icons/action/calendar_monthly_sharp.svg

<svg xmlns="http://www.w3.org/2000/svg" width="1200" height="1200" fill="none"><g fill="#000" clip-path="url(#a)"><path d="M750 850H350V750h400zM850 650H350V550h500z"/><path fill-rule="evenodd" d="M400 200h400V100h100v100h150v900H150l.489-900H300V100h100zm-150 800h700V450H250z"/></g><defs><clipPath id="a"><path fill="#fff" d="M0 0h1200v1200H0z"/></clipPath></defs></svg>

<svg width="1200" height="1200" viewBox="0 0 1200 1200" fill="none" xmlns="http://www.w3.org/2000/svg"><g clip-path="url(#clip0_787_1822)"><path d="M750 850H350V750H750V850Z" fill="black"/><path d="M850 650H350V550H850V650Z" fill="black"/><path fill-rule="evenodd" d="M400 200H800V100H900V200H1050V1100H150L150.489 200H300V100H400V200ZM250 1000H950V450H250V1000Z" fill="black"/></g><defs><clipPath id="clip0_787_1822"><path width="24" fill="white" d="M0 0H1200V1200H0V0z"/></clipPath></defs></svg>
